svg/behance.svg

<svg xmlns="http://www.w3.org/2000/svg" viewBox="0 0 64 40" enable-background="new 0 0 64 40"><style type="text/css">.st0{fill:#343434;}</style><path class="st0" d="M26.4 18.3s6.2-.5 6.2-7.6c0-7.2-5.1-10.7-11.5-10.7h-21.1v40h21.1s12.9.4 12.9-11.8c0 0 .6-9.9-7.6-9.9zm-17.1-11.2h11.8s2.9 0 2.9 4.2-1.7 4.8-3.6 4.8h-11.1v-9zm11.3 25.8h-11.3v-10.7h11.8s4.3-.1 4.3 5.5c0 4.6-3.1 5.1-4.8 5.2zM42 2h16v5h-16zM50.2 10c-15.2 0-15.2 15-15.2 15s-1 15 15.2 15c0 0 13.5.8 13.5-10.4h-6.9s.2 4.2-6.3 4.2c0 0-6.9.5-6.9-6.8h20.4c-.1 0 2.1-17-13.8-17zm-6.8 11.8s.8-6 6.9-6c6.1 0 6 6 6 6h-12.9z"/></svg>

<svg xmlns="http://www.w3.org/2000/svg" viewBox="0 0 64 40"><path d="M26.4 18.3s6.2-.5 6.2-7.6C32.6 3.5 27.5 0 21.1 0H0v40h21.1S34 40.4 34 28.2c0 0 .6-9.9-7.6-9.9zM9.3 7.1h11.8s2.9 0 2.9 4.2-1.7 4.8-3.6 4.8H9.3v-9zm11.3 25.8H9.3V22.2h11.8s4.3-.1 4.3 5.5c0 4.6-3.1 5.1-4.8 5.2zM42 2h16v5H42zm8.2 8C35 10 35 25 35 25s-1 15 15.2 15c0 0 13.5.8 13.5-10.4h-6.9s.2 4.2-6.3 4.2c0 0-6.9.5-6.9-6.8H64c-.1 0 2.1-17-13.8-17zm-6.8 11.8s.8-6 6.9-6c6.1 0 6 6 6 6H43.4z" fill="#343434"/></svg>
